X: 295
T: Miss Whites Reel
%R: strathspey, reel
Z: 2014 John Chambers <jc:trillian.mit.edu>
B: Preston "Twenty four Country Dances for the Year 1796" p.128 #1
F: http://www.vwml.org/browse/browse-collections-dance-tune-books/browse-prestons1796# 2014-8-10
M: C|
L: 1/8
K: D
A |\
d>efd B>ecA | d>efd g>abg |\
a>fge fafd | Bedc d2D :|
|: B |\
A>BAF {F}E>DB,B | A>BAF A>Bdf |\
g>ef>d {f}e>dB>e | d>AB>c d2D :|
% - - - - - - - - - - - - - - - - - - - - - - - - -
%%begintext align
%% Right hands across .| Left hands back again :|
%% lead down the middle, up again :|. Allemande :|:
%%endtext
% - - - - - - - - - - - - - - - - - - - - - - - - -

%%sep 1 1 500
%%sep 1 1 500
